resources/images/toolbar_cut_dark.svg

<svg width="40" height="40" viewBox="0 0 40 40" fill="none" xmlns="http://www.w3.org/2000/svg">
<path d="M8 20H4V19H8V20ZM15 19H10V20H15V19ZM22 19H17V20H22V19ZM29 19H24V20H29V19ZM35 19H31V20H35V19Z" fill="#FF7C3F"/>
<path d="M33.5 4H5.5C5.10218 4 4.72064 4.15804 4.43934 4.43934C4.15804 4.72064 4 5.10218 4 5.5V17H5V5.5C5 5.36739 5.05268 5.24021 5.14645 5.14645C5.24021 5.05268 5.36739 5 5.5 5H33.5C33.6326 5 33.7598 5.05268 33.8536 5.14645C33.9473 5.24021 34 5.36739 34 5.5V17H35V5.5C35 5.10218 34.842 4.72064 34.5607 4.43934C34.2794 4.15804 33.8978 4 33.5 4Z" fill="#B6B6B6"/>
<path d="M34 22V33.5C34 33.6326 33.9473 33.7598 33.8536 33.8536C33.7598 33.9473 33.6326 34 33.5 34H5.5C5.36739 34 5.24021 33.9473 5.14645 33.8536C5.05268 33.7598 5 33.6326 5 33.5V22H4V33.5C4 33.8978 4.15804 34.2794 4.43934 34.5607C4.72064 34.842 5.10218 35 5.5 35H33.5C33.8978 35 34.2794 34.842 34.5607 34.5607C34.842 34.2794 35 33.8978 35 33.5V22H34Z" fill="#B6B6B6"/>
</svg>

<svg xmlns="http://www.w3.org/2000/svg" width="40" height="40" viewBox="0 0 40 40"><path d="M8,20H4V19H8Zm7-1H10v1h5Zm7,0H17v1h5Zm7,0H24v1h5Zm6,0H31v1h4Z" style="fill:#009688"/><path d="M33.5,4H5.5A1.5,1.5,0,0,0,4,5.5V17H5V5.5A.5.5,0,0,1,5.5,5h28a.5.5,0,0,1,.5.5V17h1V5.5A1.5,1.5,0,0,0,33.5,4Z" style="fill:#b6b6b6"/><path d="M34,22V33.5a.5.5,0,0,1-.5.5H5.5a.5.5,0,0,1-.5-.5V22H4V33.5A1.5,1.5,0,0,0,5.5,35h28A1.5,1.5,0,0,0,35,33.5V22Z" style="fill:#b6b6b6"/></svg>
